._scraped/app.urodapter.com/img/fail_icon.svg

<svg fill="none" height="43" viewBox="0 0 42 43" width="42" xmlns="http://www.w3.org/2000/svg"><path d="m21 13.2612v8m0 8h.02m19.98-8c0 11.0457-8.9543 20-20 20s-20-8.9543-20-20 8.9543-19.99997 20-19.99997 20 8.95427 20 19.99997z" stroke="#101828" stroke-linecap="round" stroke-linejoin="round" stroke-width="2"/></svg>

<svg width="42" height="43" viewBox="0 0 42 43" fill="none" xmlns="http://www.w3.org/2000/svg">
<path d="M21 13.2612V21.2612M21 29.2612H21.02M41 21.2612C41 32.3069 32.0457 41.2612 21 41.2612C9.9543 41.2612 1 32.3069 1 21.2612C1 10.2155 9.9543 1.26123 21 1.26123C32.0457 1.26123 41 10.2155 41 21.2612Z" stroke="#101828" stroke-width="2" stroke-linecap="round" stroke-linejoin="round"/>
</svg>
